svg/FoundationIcons/fi-social-hi5.svg

<svg xmlns="http://www.w3.org/2000/svg" viewBox="0 0 100 100" enable-background="new 0 0 100 100"><path d="m93.25 44.07c.244-5.331.487-10.662.731-15.993-10.425 0-20.851 0-31.28 0l-1.564 8.465v-6.128c-5.724 0-11.448 0-17.17 0v7.947h-5.567v1.736c-3.268-2.575-8.316-2.712-12.11-1.3v-10.72c-7.58 0-15.16 0-22.739 0 0 5.01 0 10.03 0 15.04h2.956v12.864h-2.957c0 4.968 0 9.935 0 14.903 20.18 0 40.36 0 60.54 0v-1.955c3.732 2.115 8.155 2.986 12.412 2.986 5.88 0 10.547-1.768 13.888-4.518 3.461-2.849 5.606-7.444 5.994-12.13.331-4.01-.623-8.08-3.14-11.196m-45.33-9.71h9.279v6.255h-9.279v-6.255m-6.264 32.58h-16.287v-7.01h1.557v-8.562c0-4.04-4.575-2.609-4.575 4.052v4.51h1.375v7.01h-16.221v-7.01h2.955v-20.757h-2.955v-7.148h14.846v15.15c1.955-3.149 4.606-5.295 8.998-5.295 6.221 0 7.154 5.391 7.154 7.53v10.517h3.152v7.01m18.499 0h-17.733v-7.01h2.887v-10.448h-2.956v-7.174h14.846v17.621h2.956v7.01m16.358 1.031c-6.803 0-12.444-2.532-14.475-6.278-2.098-3.868-.452-9.839 4.657-9.849 3.333-.006 5.436 1.477 4.732 5.283-.884 2.564.797 3.414 2.423 3.414 2.464 0 4.336-2.837 4.464-5.733.12-2.721-1-5.366-3.508-5.395-1.017-.012-2.227.371-3.379 1.778l-8.77-1.183 3.323-17.985h23.886l-.43 9.416h-15.764l-.362 3.02c2.267-1.01 4.984-1.689 7.482-1.689 6.628 0 11.978 3.343 11.667 12.08 0 6.738-5.512 13.13-15.946 13.13"/></svg>

<?xml version="1.0" encoding="utf-8"?>
<!-- Generator: Adobe Illustrator 17.0.0, SVG Export Plug-In . SVG Version: 6.00 Build 0)  -->
<!DOCTYPE svg PUBLIC "-//W3C//DTD SVG 1.1//EN" "http://www.w3.org/Graphics/SVG/1.1/DTD/svg11.dtd">
<svg version="1.1" id="Layer_1" xmlns="http://www.w3.org/2000/svg" xmlns:xlink="http://www.w3.org/1999/xlink" x="0px" y="0px"
	 width="100px" height="100px" viewBox="0 0 100 100" enable-background="new 0 0 100 100" xml:space="preserve">
<g>
	<path d="M93.246,44.073c0.244-5.331,0.487-10.662,0.731-15.993c-10.425,0-20.851,0-31.276,0l-1.564,8.465v-6.128
		c-5.724,0-11.448,0-17.171,0v7.947h-5.567v1.736c-3.268-2.575-8.316-2.712-12.109-1.3V28.08c-7.58,0-15.159,0-22.739,0
		c0,5.014,0,10.027,0,15.041h2.956v12.864H3.55c0,4.968,0,9.935,0,14.903c20.181,0,40.361,0,60.542,0v-1.955
		c3.732,2.115,8.155,2.986,12.412,2.986c5.88,0,10.547-1.768,13.888-4.518c3.461-2.849,5.606-7.444,5.994-12.132
		C96.717,51.262,95.763,47.185,93.246,44.073z M47.912,34.363h9.279v6.255h-9.279V34.363z M41.648,66.943H25.361v-7.011h1.557V51.37
		c0-4.036-4.575-2.609-4.575,4.052v4.51h1.375v7.011H7.497v-7.011h2.955V39.175H7.497v-7.148h14.846V47.18
		c1.955-3.149,4.606-5.295,8.998-5.295c6.221,0,7.154,5.391,7.154,7.53v10.517h3.152V66.943z M60.146,66.943H42.413v-7.011H45.3
		V49.484h-2.956v-7.174H57.19v17.621h2.956V66.943z M76.504,67.974c-6.803,0-12.444-2.532-14.475-6.278
		c-2.098-3.868-0.452-9.839,4.657-9.849c3.333-0.006,5.436,1.477,4.732,5.283c-0.884,2.564,0.797,3.414,2.423,3.414
		c2.464,0,4.336-2.837,4.464-5.733c0.12-2.721-1-5.366-3.508-5.395c-1.017-0.012-2.227,0.371-3.379,1.778l-8.77-1.183l3.323-17.985
		h23.886l-0.43,9.416H73.663l-0.362,3.016c2.267-1.005,4.984-1.689,7.482-1.689c6.628,0,11.978,3.343,11.667,12.077
		C92.45,61.584,86.938,67.974,76.504,67.974z"/>
</g>
</svg>
